X:1
T:Howls Moving Castle - Theme
T:Howls Moving Castle - Theme
T:Joe Hisaishi
T:Snickle Fritz
C:Joe Hisaishi
Z:Arad Samsonov
%%score { 1 | 2 }
L:1/8
M:3/4
K:Bb
V:1 treble nm="Piano" snm="Pno."
V:2 bass 
V:1
 de de de | cd cd cd | Bc Bc Bc | A/G/^F- F4 | z2 z2 [^F,A,D^F]2- | [F,A,DF]2 z4 | D2 G2 B2 | %7
 [EGBd]4 [EGBd]2 | [CD^Fc]2 [DFB]2 [DFA]2 | [DGB]6 | z3 G Bd | [GBeg]4 [GBeg]2 | %12
 [Gcg]2 [Fcf]2 [Ece]2 | [FAdf]6 | z3 A df | [Bdfa]4 [Bdg]2 | [G^cf]2 [Gc=e]2 [Gcf]2 | [Acg]4 f2 | %18
 [FA=e]4 d2 | [DFc]2 [DFB]2 [DFc]2 | [=EGd]2 [EGc]2 [EG]2 | A3 D GA | z a/c'/ b2 a2 | %23
 z a/c'/ ba g^f | ed- d4 | z6 | z6 | z6 | D2 G2 B2 | d4 d2 | c2 B2 A2 | B6 | G2 B2 d2 | g4 g2 | %34
 g2 f2 e2 | f6 | A2 d2 f2 | a4 g2 | f2 =e2 f2 | g4 f2 | =e4 d2 | c2 B2 c2 | d2 c2 G2 | A4 z2 | %44
 D2 G2 B2 | d4 d2 | c2 B2 A2 | B6 | G2 B2 d2 | g4 g2 | g2 a2 fe | f6 | A2 d2 f2 | a4 g2- | %54
 g2 f=e ^de | g4 f2- | f2 =ed ^cd | d3 c B2 | [A^ca]3 [=B=e=b] [ce^c']2 | [d^fd']6- | [dfd']2 z4 |] %61
V:2
 z6 | z6 | z6 | z6 | D,,A,, D,4 | z6 | z6 | C,,2 [E,B,D]4 | D,,2 [D,^F,A,]4 | G,,2 [A,B,D]4 | %10
 G,2 [B,D]4 | C,,2 [G,B,E]4 | F,,2 [F,CE]4 | B,,2 [F,A,D]4 | F,,2 [F,A,D]4 | =E,,2 [F,B,D]4 | %16
 A,,2 [=E,G,^C]4 | D,,2 [F,A,D]4 | C,,2 [F,A,D]4 | B,,,2 [F,B,D]4 | A,,,2 [G,A,C]4 | %21
 D,,2 [D,G,C]4 | [D,^F,A,C]6 | [D,^F,A,C]6 | z6 | G,,2 [G,B,D]2 [G,B,D]2 | D,,2 [G,B,D]2 [G,B,D]2 | %27
 G,,2 [G,B,D]2 [G,B,D]2 | D,,2 [G,B,D]2 [G,B,D]2 | C,,2 [G,B,E]2 [G,B,E]2 | D,,2 [^F,CD]2 [F,CD]2 | %31
 G,,2 [G,B,D]2 [G,B,D]2 | G,,2 [G,B,D]2 [G,B,D]2 | E,,2 [G,B,E]2 [G,B,E]2 | F,,2 [A,CE]2 [A,CE]2 | %35
 B,,2 [F,A,D]2 [F,A,D]2 | F,,2 [F,A,D]2 [F,A,D]2 | =E,,2 [G,B,D]2 [G,B,D]2 | %38
 A,,2 [=E,G,^C]2 [E,G,C]2 | D,,2 [F,A,D]2 [F,A,D]2 | C,,2 [F,A,D]2 [F,A,D]2 | %41
 B,,,2 [F,B,D]2 [F,B,D]2 | A,,,2 [=E,G,D]2 [E,G,D]2 | D,,2 [^E,F,A,C]2 [E,F,A,C]2 | %44
 D,,2 [^E,F,A,C]2 [E,F,A,C]2 | C,,2 [G,B,E]2 [G,B,E]2 | D,,2 [^F,CD]2 [F,CD]2 | %47
 G,,2 [G,B,D]2 [G,B,D]2 | [F,_A,CE]3 [F,A,B,D]3 | E,,2 [G,B,E]2 [G,B,E]2 | F,,2 [A,CE]2 [A,CE]2 | %51
 B,,2 [F,A,D]2 [F,A,D]2 | F,,2 [F,A,D]2 [F,A,D]2 | =E,,2 [=E,G,B,D]2 [E,G,B,D]2 | %54
 A,,2 [G,A,^C=E]2 [G,A,CE]2 | D,,2 [F,A,D]2 [F,A,D]2 | C,,2 [F,A,D]2 [F,A,D]2 | %57
 B,,,2 [F,B,D]2 [F,B,D]2 | A,,2 [G,A,^C_E]2 [G,A,CE]2 | D,,6- | D,,6 |] %61

